svg/color/czz.svg

<?xml version="1.0" encoding="UTF-8" ?>
<!DOCTYPE svg PUBLIC "-//W3C//DTD SVG 1.1//EN" "http://www.w3.org/Graphics/SVG/1.1/DTD/svg11.dtd">
<svg width="214pt" height="250pt" viewBox="0 0 214 250" version="1.1" xmlns="http://www.w3.org/2000/svg">
<g id="#ffffffff">
<path fill="#ffffff" opacity="1.00" d=" M 0.00 0.00 L 214.00 0.00 L 214.00 250.00 L 0.00 250.00 L 0.00 0.00 M 4.22 67.87 C 3.38 78.21 4.00 88.62 3.88 98.99 C 3.89 100.33 3.89 101.67 3.88 103.01 C 3.82 110.34 3.77 117.67 3.90 125.00 C 3.93 141.67 3.81 158.33 3.90 175.00 C 3.83 178.01 3.53 181.09 4.54 183.99 C 7.11 185.17 9.54 186.62 11.99 188.04 C 41.13 204.88 70.32 221.63 99.45 238.50 C 101.41 239.49 103.72 241.80 105.93 240.02 C 138.67 221.00 171.60 202.32 204.27 183.19 C 204.24 173.25 204.23 163.31 204.28 153.38 C 197.61 153.17 190.93 153.34 184.27 153.27 C 184.24 159.51 184.31 165.75 184.22 171.99 C 158.05 186.92 131.99 202.05 105.89 217.09 C 104.92 217.73 103.67 218.07 102.64 217.36 C 76.34 202.25 50.12 186.99 23.77 171.98 C 23.65 141.25 23.79 110.51 23.70 79.78 C 50.36 64.12 77.26 48.87 104.01 33.36 C 130.75 48.87 157.67 64.09 184.30 79.79 C 184.23 86.07 184.28 92.35 184.26 98.63 C 190.93 98.59 197.60 98.71 204.27 98.55 C 204.22 88.97 204.28 79.40 204.25 69.82 C 204.65 68.30 203.02 67.61 202.05 66.92 C 169.38 48.08 136.69 29.26 104.01 10.41 C 70.74 29.55 37.54 48.81 4.22 67.87 M 69.39 74.57 C 69.35 78.53 69.36 82.49 69.39 86.45 C 88.70 86.46 108.02 86.38 127.33 86.49 C 127.28 92.94 127.37 99.39 127.29 105.84 C 115.03 119.09 102.64 132.23 90.38 145.47 C 90.31 149.43 90.33 153.40 90.37 157.36 C 106.50 157.35 122.63 157.31 138.77 157.38 C 138.86 153.43 139.02 149.48 138.85 145.54 C 127.75 145.51 116.65 145.60 105.55 145.49 C 116.61 133.81 127.48 121.95 138.43 110.18 C 139.42 102.60 138.51 94.70 138.88 87.00 C 138.69 82.85 139.45 78.69 138.78 74.56 C 115.65 74.63 92.52 74.59 69.39 74.57 M 69.38 105.61 C 80.67 105.66 91.97 105.51 103.26 105.70 C 92.48 117.85 80.67 129.05 69.74 141.06 C 69.65 152.85 69.77 164.64 69.67 176.43 C 92.72 176.75 115.78 176.49 138.83 176.57 C 138.85 172.63 138.85 168.69 138.79 164.75 C 119.72 164.63 100.66 164.86 81.59 164.64 C 81.64 158.39 81.59 152.15 81.62 145.90 C 94.00 132.43 106.87 119.39 119.10 105.79 C 119.93 102.02 119.24 98.03 119.52 94.18 C 115.05 93.49 110.53 93.84 106.04 93.79 C 93.89 93.74 81.73 93.86 69.58 93.72 C 69.30 97.68 69.33 101.65 69.38 105.61 Z" />
</g>
<g id="#151e3fff">
<path fill="#151e3f" opacity="1.00" d=" M 4.22 67.87 C 37.54 48.81 70.74 29.55 104.01 10.41 C 136.69 29.26 169.38 48.08 202.05 66.92 C 203.02 67.61 204.65 68.30 204.25 69.82 C 204.28 79.40 204.22 88.97 204.27 98.55 C 197.60 98.71 190.93 98.59 184.26 98.63 C 184.28 92.35 184.23 86.07 184.30 79.79 C 157.67 64.09 130.75 48.87 104.01 33.36 C 77.26 48.87 50.36 64.12 23.70 79.78 C 23.79 110.51 23.65 141.25 23.77 171.98 C 50.12 186.99 76.34 202.25 102.64 217.36 C 103.67 218.07 104.92 217.73 105.89 217.09 C 131.99 202.05 158.05 186.92 184.22 171.99 C 184.31 165.75 184.24 159.51 184.27 153.27 C 190.93 153.34 197.61 153.17 204.28 153.38 C 204.23 163.31 204.24 173.25 204.27 183.19 C 171.60 202.32 138.67 221.00 105.93 240.02 C 103.72 241.80 101.41 239.49 99.45 238.50 C 70.32 221.63 41.13 204.88 11.99 188.04 C 9.54 186.62 7.11 185.17 4.54 183.99 C 3.53 181.09 3.83 178.01 3.90 175.00 C 3.81 158.33 3.93 141.67 3.90 125.00 C 3.77 117.67 3.82 110.34 3.88 103.01 C 3.89 101.67 3.89 100.33 3.88 98.99 C 4.00 88.62 3.38 78.21 4.22 67.87 Z" />
<path fill="#151e3f" opacity="1.00" d=" M 69.39 74.57 C 92.52 74.59 115.65 74.63 138.78 74.56 C 139.45 78.69 138.69 82.85 138.88 87.00 C 138.51 94.70 139.42 102.60 138.43 110.18 C 127.48 121.95 116.61 133.81 105.55 145.49 C 116.65 145.60 127.75 145.51 138.85 145.54 C 139.02 149.48 138.86 153.43 138.77 157.38 C 122.63 157.31 106.50 157.35 90.37 157.36 C 90.33 153.40 90.31 149.43 90.38 145.47 C 102.64 132.23 115.03 119.09 127.29 105.84 C 127.37 99.39 127.28 92.94 127.33 86.49 C 108.02 86.38 88.70 86.46 69.39 86.45 C 69.36 82.49 69.35 78.53 69.39 74.57 Z" />
</g>
<g id="#a3a7b3ff">
<path fill="#a3a7b3" opacity="1.00" d=" M 69.38 105.61 C 69.33 101.65 69.30 97.68 69.58 93.72 C 81.73 93.86 93.89 93.74 106.04 93.79 C 110.53 93.84 115.05 93.49 119.52 94.18 C 119.24 98.03 119.93 102.02 119.10 105.79 C 106.87 119.39 94.00 132.43 81.62 145.90 C 81.59 152.15 81.64 158.39 81.59 164.64 C 100.66 164.86 119.72 164.63 138.79 164.75 C 138.85 168.69 138.85 172.63 138.83 176.57 C 115.78 176.49 92.72 176.75 69.67 176.43 C 69.77 164.64 69.65 152.85 69.74 141.06 C 80.67 129.05 92.48 117.85 103.26 105.70 C 91.97 105.51 80.67 105.66 69.38 105.61 Z" />
</g>
</svg>

<?xml version="1.0" encoding="utf-8"?>
<!-- Generator: Adobe Illustrator 26.0.3, SVG Export Plug-In . SVG Version: 6.00 Build 0)  -->
<svg version="1.1" id="Layer_1" xmlns="http://www.w3.org/2000/svg" xmlns:xlink="http://www.w3.org/1999/xlink" x="0px" y="0px"
	 viewBox="0 0 214 250" style="enable-background:new 0 0 214 250;" xml:space="preserve">
<style type="text/css">
	.st0{fill:#151E3F;}
	.st1{fill:#A3A7B3;}
</style>
<g id="_x23_151e3fff">
	<path class="st0" d="M4.2,67.9C37.5,48.8,70.7,29.5,104,10.4c32.7,18.9,65.4,37.7,98,56.5c1,0.7,2.6,1.4,2.2,2.9
		c0,9.6,0,19.2,0,28.7c-6.7,0.2-13.3,0-20,0.1c0-6.3,0-12.6,0-18.8c-26.6-15.7-53.6-30.9-80.3-46.4C77.3,48.9,50.4,64.1,23.7,79.8
		c0.1,30.7-0.1,61.5,0.1,92.2c26.3,15,52.6,30.3,78.9,45.4c1,0.7,2.3,0.4,3.2-0.3c26.1-15,52.2-30.2,78.3-45.1
		c0.1-6.2,0-12.5,0.1-18.7c6.7,0.1,13.3-0.1,20,0.1c-0.1,9.9,0,19.9,0,29.8c-32.7,19.1-65.6,37.8-98.3,56.8
		c-2.2,1.8-4.5-0.5-6.5-1.5C70.3,221.6,41.1,204.9,12,188c-2.4-1.4-4.9-2.9-7.4-4c-1-2.9-0.7-6-0.6-9c-0.1-16.7,0-33.3,0-50
		c-0.1-7.3-0.1-14.7,0-22c0-1.3,0-2.7,0-4C4,88.6,3.4,78.2,4.2,67.9z"/>
	<path class="st0" d="M69.4,74.6c23.1,0,46.3,0.1,69.4,0c0.7,4.1-0.1,8.3,0.1,12.4c-0.4,7.7,0.5,15.6-0.5,23.2
		c-10.9,11.8-21.8,23.6-32.9,35.3c11.1,0.1,22.2,0,33.3,0c0.2,3.9,0,7.9-0.1,11.8c-16.1-0.1-32.3,0-48.4,0c0-4-0.1-7.9,0-11.9
		c12.3-13.2,24.7-26.4,36.9-39.6c0.1-6.4,0-12.9,0-19.3c-19.3-0.1-38.6,0-57.9,0C69.4,82.5,69.3,78.5,69.4,74.6z"/>
</g>
<g id="_x23_a3a7b3ff">
	<path class="st1" d="M69.4,105.6c0-4-0.1-7.9,0.2-11.9c12.2,0.1,24.3,0,36.5,0.1c4.5,0,9-0.3,13.5,0.4c-0.3,3.8,0.4,7.8-0.4,11.6
		c-12.2,13.6-25.1,26.6-37.5,40.1c0,6.2,0,12.5,0,18.7c19.1,0.2,38.1,0,57.2,0.1c0.1,3.9,0.1,7.9,0,11.8
		c-23.1-0.1-46.1,0.2-69.2-0.1c0.1-11.8,0-23.6,0.1-35.4c10.9-12,22.7-23.2,33.5-35.4C92,105.5,80.7,105.7,69.4,105.6z"/>
</g>
</svg>
